X: 1
T: THE GIRL I LEFT BEHIND ME
B: Ryan's Mammoth Collection of Fiddle Tunes
R: reel
M: 2/4
L: 1/16
Z: Contributed 20001214190850 by John Chambers John.Chambers:weema.com
K: G
"_f"ue2 \
| d2B2 cBAG | A2G2 E3D | G2G2 GABc | (d4 B2)"^4"e2 \
| d2B2 cBAG | A2G2 E3G | F2"^4"A2 D2EF | G2z2 G2 :|
|: "_mf"uG2 \
| .B2.d2.e2f2 | gfed cBAG | .B2.d2.e2f2 | g4 (f2g2) \
| e2d2 cBAG | A2G2 E3G | F2"^4"A2 D2EF | G2z2 G2 :|
